assets/icons/24px/stroke/circle-triangle-24px.svg

<svg width="24" height="24" viewBox="0 0 24 24" fill="none" xmlns="http://www.w3.org/2000/svg">
<path fill-rule="evenodd" clip-rule="evenodd" d="M12 4C7.58172 4 4 7.58172 4 12C4 16.4183 7.58172 20 12 20C16.4183 20 20 16.4183 20 12C20 7.58172 16.4183 4 12 4ZM2 12C2 6.47715 6.47715 2 12 2C17.5228 2 22 6.47715 22 12C22 17.5228 17.5228 22 12 22C6.47715 22 2 17.5228 2 12Z" fill="white"/>
<path fill-rule="evenodd" clip-rule="evenodd" d="M11.9914 9.89656C11.7977 10.1109 11.5626 10.4589 11.168 11.0508L10.905 11.4453C10.4299 12.1579 10.1396 12.5982 9.98595 12.9235C9.98301 12.9297 9.98018 12.9358 9.97744 12.9417C9.98388 12.9427 9.9905 12.9437 9.9973 12.9447C10.3532 12.9973 10.8806 13 11.737 13H12.263C13.1195 13 13.6468 12.9973 14.0027 12.9447C14.0095 12.9437 14.0161 12.9427 14.0226 12.9417C14.0199 12.9358 14.017 12.9297 14.0141 12.9235C13.8604 12.5982 13.5701 12.1579 13.095 11.4453L12.8321 11.0508C12.4375 10.4589 12.2023 10.1109 12.0086 9.89656C12.0057 9.89333 12.0028 9.89019 12 9.88712C11.9972 9.89019 11.9943 9.89333 11.9914 9.89656ZM12.1198 9.7747C12.1198 9.7748 12.1184 9.77578 12.1156 9.77731C12.1185 9.77536 12.1198 9.77459 12.1198 9.7747ZM11.8844 9.77731C11.8816 9.77578 11.8802 9.7748 11.8802 9.7747C11.8802 9.77459 11.8816 9.77536 11.8844 9.77731ZM14.0968 13.1457C14.0966 13.1456 14.0961 13.1427 14.0958 13.1375C14.0969 13.1432 14.097 13.1458 14.0968 13.1457ZM14.2261 12.8939C14.2306 12.8913 14.2333 12.8902 14.2335 12.8903C14.2337 12.8904 14.2315 12.8917 14.2261 12.8939ZM9.76651 12.8903C9.76673 12.8902 9.76941 12.8913 9.77394 12.8939C9.76856 12.8917 9.7663 12.8904 9.76651 12.8903ZM9.90427 13.1375C9.90394 13.1427 9.90339 13.1456 9.9032 13.1457C9.90301 13.1458 9.90317 13.1432 9.90427 13.1375ZM10.5076 8.5556C10.8372 8.19085 11.3145 7.80273 12 7.80273C12.6855 7.80273 13.1628 8.19085 13.4925 8.5556C13.7976 8.89331 14.1148 9.36923 14.4582 9.88446C14.4708 9.90339 14.4835 9.92237 14.4962 9.94141L14.7591 10.3359C14.7729 10.3565 14.7866 10.3771 14.8003 10.3976C15.2212 11.0287 15.5979 11.5937 15.8225 12.0694C16.055 12.5615 16.2665 13.2492 15.8948 13.9437C15.5232 14.6382 14.8337 14.8436 14.2952 14.9232C13.7748 15.0001 13.0958 15 12.3371 15C12.3125 15 12.2878 15 12.263 15H11.737C11.7122 15 11.6875 15 11.6629 15C10.9042 15 10.2252 15.0001 9.70483 14.9232C9.16637 14.8436 8.47686 14.6382 8.10518 13.9437C7.73351 13.2492 7.94505 12.5615 8.1775 12.0694C8.40215 11.5937 8.77887 11.0287 9.19976 10.3976C9.21342 10.3771 9.22714 10.3565 9.2409 10.3359L9.50386 9.94141C9.51656 9.92237 9.52921 9.90338 9.54183 9.88445C9.88521 9.36922 10.2024 8.89331 10.5076 8.5556Z" fill="white"/>
</svg>

<svg width="24" height="24" fill="none" xmlns="http://www.w3.org/2000/svg"><path fill-rule="evenodd" clip-rule="evenodd" d="M12 4a8 8 0 1 0 0 16 8 8 0 0 0 0-16zM2 12C2 6.477 6.477 2 12 2s10 4.477 10 10-4.477 10-10 10S2 17.523 2 12z" fill="#fff"/><path fill-rule="evenodd" clip-rule="evenodd" d="M11.991 9.897c-.193.214-.428.562-.823 1.154l-.263.394c-.475.713-.765 1.153-.919 1.479l-.009.018a2.5 2.5 0 0 0 .02.003c.356.052.884.055 1.74.055h.526c.857 0 1.384-.003 1.74-.055l.02-.003-.009-.018c-.154-.326-.444-.766-.919-1.479l-.263-.394c-.395-.592-.63-.94-.823-1.154L12 9.887l-.009.01zm.129-.122l-.004.002a.026.026 0 0 1 .004-.002zm-.236.002a.024.024 0 0 1-.004-.002l.004.002zm2.213 3.369l-.001-.009a.028.028 0 0 1 0 .009zm.13-.252a.033.033 0 0 1 .006-.004l-.007.004zm-4.46-.004l.007.004a.03.03 0 0 1-.007-.004zm.137.247v.009-.009zm.604-4.581c.33-.365.807-.753 1.492-.753.685 0 1.163.388 1.492.753.306.337.623.813.966 1.328l.038.057.263.395.041.062c.421.63.798 1.196 1.022 1.671.233.492.445 1.18.073 1.875-.372.694-1.061.9-1.6.98-.52.076-1.2.076-1.958.076H11.663c-.759 0-1.438 0-1.958-.077-.539-.08-1.228-.285-1.6-.98-.371-.694-.16-1.381.072-1.874.225-.475.602-1.04 1.023-1.671l.04-.062.264-.395.038-.057c.343-.515.66-.99.966-1.328z" fill="#fff"/></svg>
